X: 3704
T: Billy Taylor's Fancy
R: hornpipe
M: 4/4
K: Gmajor
|:GABc dBeB|dgfg bgdB|(3cBA dc (3BAG dB|(3ABA (3GFE DcBA|
GABc dBeB|dgfg bgdB|(3cBA dc (3BAG AF|1 GBAF GDEF:|2 GBAF G2 fg||
|:ag (3fgf defg|(3agf (3gfe defg|(3agf (3bag (3agf (3gfe|dgdB AcBA|
GABc dBeB|dgfg bgdB|(3cBA dc (3BAG AF|1 GBAF G2 fg:|2 GBAF G4||

